X: 134007
T: THRO' THE FIELD
Q: "Irish Reel."
R: Reel.
%R: reel
B: James Kerr "Merry Melodies" v.1 p.34 s.0 #7
Z: 2017 John Chambers <jc:trillian.mit.edu>
M: C
L: 1/8
K: G
|:\
G2(Bd) gdBd | cBAB cedc |\
BGGA BcdB |[1 ecAF GFED :|[2 ecAF G2 H|]\
(ga) |\
b2ag b2ag | egdg egdg |
b2ag b2ag | egfa g2(ga) |\
b2ag b2ag | egdg egdg |\
(3(bag) (af) gefd | cdef gecA |]

%%sep 1 1 500
%%sep 1 1 500

